assets/icon/insta.svg

<?xml version="1.0" encoding="utf-8"?>
<!-- Generator: Adobe Illustrator 19.2.1, SVG Export Plug-In . SVG Version: 6.00 Build 0)  -->
<svg version="1.1" id="Layer_1" xmlns="http://www.w3.org/2000/svg" xmlns:xlink="http://www.w3.org/1999/xlink" x="0px" y="0px"
	 viewBox="0 0 75.2 75.2" style="enable-background:new 0 0 75.2 75.2;" xml:space="preserve">
<style type="text/css">
	.st0{fill:#231F20;}
	.st1{fill:#FFFFFF;}
</style>
<g>
	<rect x="-0.1" y="-0.1" width="75.4" height="75.4"/>
	<polygon class="st0" points="-0.1,75.3 -0.1,75.4 75.4,75.4 75.4,-0.2 -0.2,-0.2 -0.2,75.4 -0.1,75.4 -0.1,75.3 0,75.3 0,0 75.2,0 
		75.2,75.2 -0.1,75.2 -0.1,75.3 0,75.3 	"/>
	<path class="st1" d="M19.2,12.8h36.9c3.5,0,6.4,2.9,6.4,6.4v36.9c0,3.5-2.9,6.4-6.4,6.4H19.2c-3.5,0-6.4-2.9-6.4-6.4V19.2
		C12.8,15.7,15.7,12.8,19.2,12.8z M48.9,18.3c-1.2,0-2.2,1-2.2,2.2v5.3c0,1.2,1,2.2,2.2,2.2h5.6c1.2,0,2.2-1,2.2-2.2v-5.3
		c0-1.2-1-2.2-2.2-2.2H48.9z M56.8,33.8h-4.4c0.4,1.4,0.6,2.8,0.6,4.3c0,8.3-6.9,14.9-15.4,14.9c-8.5,0-15.4-6.7-15.4-14.9
		c0-1.5,0.2-2.9,0.6-4.3h-4.6v21c0,1.1,0.9,2,2,2h34.6c1.1,0,2-0.9,2-2V33.8z M37.7,27.8c-5.5,0-10,4.3-10,9.7c0,5.3,4.5,9.7,10,9.7
		c5.5,0,10-4.3,10-9.7C47.6,32.2,43.2,27.8,37.7,27.8z"/>
</g>
</svg>

<?xml version="1.0" encoding="utf-8"?>
<!-- Generator: Adobe Illustrator 19.2.1, SVG Export Plug-In . SVG Version: 6.00 Build 0)  -->
<svg version="1.1" id="Layer_1" xmlns="http://www.w3.org/2000/svg" xmlns:xlink="http://www.w3.org/1999/xlink" x="0px" y="0px"
	 viewBox="0 0 75.2 75.2" style="enable-background:new 0 0 75.2 75.2;" xml:space="preserve">
<style type="text/css">
	.st0{fill:#231F20;}
</style>
<g>
	<polygon class="st0" points="-0.1,75.3 -0.1,75.4 75.4,75.4 75.4,-0.2 -0.2,-0.2 -0.2,75.4 -0.1,75.4 -0.1,75.3 0,75.3 0,0 75.2,0 
		75.2,75.2 -0.1,75.2 -0.1,75.3 0,75.3 	"/>
	<g>
		<path d="M37.7,47.2c5.5,0,10-4.3,10-9.7c-0.1-5.3-4.5-9.7-10-9.7s-10,4.3-10,9.7C27.7,42.8,32.2,47.2,37.7,47.2z"/>
		<path d="M48.9,28h5.6c1.2,0,2.2-1,2.2-2.2v-5.3c0-1.2-1-2.2-2.2-2.2h-5.6c-1.2,0-2.2,1-2.2,2.2v5.3C46.7,27,47.7,28,48.9,28z"/>
		<path d="M-0.1-0.1v75.4h75.4V-0.1H-0.1z M62.5,56.1c0,3.5-2.9,6.4-6.4,6.4H19.2c-3.5,0-6.4-2.9-6.4-6.4V19.2
			c0-3.5,2.9-6.4,6.4-6.4h36.9c3.5,0,6.4,2.9,6.4,6.4V56.1z"/>
		<path d="M53,38.1C53,46.4,46.1,53,37.6,53s-15.4-6.7-15.4-14.9c0-1.5,0.2-2.9,0.6-4.3h-4.6v21c0,1.1,0.9,2,2,2h34.6
			c1.1,0,2-0.9,2-2v-21h-4.4C52.8,35.2,53,36.6,53,38.1z"/>
	</g>
</g>
</svg>
